src/theme/images/logo.svg

<svg fill="none" height="48" viewBox="0 0 70 48" width="70" xmlns="http://www.w3.org/2000/svg"><g fill="#0421b1"><path d="m12.7432 2.66871c-.5752.177-1.0176-.354-1.0176-.88501 0-.13275.0442-.30975.0885-.4425.1769-.2655.5309-.398252.8406-.531003.7078-.221252 1.4157-.531004 2.1678-.708005.3097-.0885009.6194-.1770015.9291 0 .2655.132751.4424.398252.4867.708005.0885.663753-.6636.929253-1.1503 1.106253-.7521.22126-1.5485.53101-2.3448.75226z"/><path d="m56.543 2.89039c-.5752.177-1.0176-.354-1.0176-.88501 0-.13275.0442-.30975.0885-.4425.1769-.2655.5309-.39825.8406-.531.7078-.221255 1.4157-.531007 2.1678-.708009.3097-.0885.6194-.177001.9291 0 .2655.132751.4424.398253.4867.708009.0885.66375-.6637.92925-1.1503 1.10625-.7521.26551-1.5485.53101-2.3448.75226z"/><path d="m2.5218 14.8808c-.08848.8408-.08848 3.0976-.88484 3.4516-1.017572.4425-1.63696-.0885-1.63696-.9293.0442421-1.947.265457-4.0268.619394-5.9295.353937-1.99129.663626-4.07106 1.150296-6.15082.48666-2.12402 1.28302-1.81427 3.09694-1.01776 1.41575.6195 1.94666 2.30101 1.90242 3.67277-.04425.88501-.04425 1.68152-.44242 2.52231-.22122.3982-.66364 1.1062-1.01757 1.416-.35394.354-.53091.531-.88485.8407-.75211.6638-.61938.3098.26546 1.9913.39818.7522 1.19454 1.8143 1.10605 2.7435-.08848.7523-.79636.885-1.37151.6638-.70787-.3098-1.41575-2.3011-1.90241-3.2746zm1.06181-8.40752c-.22121 1.23901-.48666 3.09753-.70787 4.33652 2.30059-.7965 2.21211-3.93826.70787-4.33652z"/><path d="m12.7417 6.03025c-.3982 1.06201-.5752 2.43377-.6637 3.54003-.0885 1.41602.7964.57522 1.7255.97352.7078.3097.8848.9735.0885 1.4602-1.1061.708-1.8582-.3097-2.1237 1.2833-.1327.7523-.3539 2.5665.177 3.1418.5751.6195 2.0794-.177 2.6545.531 1.3273 1.7257-3.3181 1.593-3.9818 1.1947-1.68117-.9292-1.28299-3.6285-1.15026-5.3543.13272-2.2567.5309-4.60198 1.01756-6.903.2212-1.10626.5309-1.63726 1.7697-1.81426.8848-.13275 2.3448-.35401 3.1854-.0885.6194.177 1.2388.885.6194 1.50451-.5751.6195-2.5218.30975-3.3181.531z"/><path d="m21.637 9.88202c.6194.04425 1.637.04425 1.9467.61948.3539.7523-.6636 1.062-1.3273 1.1948-.5309.0885-.8848-.0885-1.0175.0885-.1328.2655-.177 1.1947-.2213 1.416-.1327.9735-.2654 1.947-.3096 2.9205-.0443.7523.1327 1.9028-.8406 2.2568-2.5218.9292-1.3273-4.1153-1.2388-5.0446.2212-1.9027.5309-3.84973.8848-5.75249.1327-.79651.2212-1.68152.4424-2.47802.1328-.61951.5309-1.06201 1.2831-1.15051 1.106-.177 2.4775-.04425 3.5393.04425.6637.0885 1.7255.2655 1.5485 1.01776-.2212.97351-1.6812.75225-2.3891.75225-1.0175 0-1.4157-.0885-1.6812.88501-.3539 1.06201-.5309 2.16826-.6194 3.23027z"/></g><path d="m45.8798 33.2908c1.0618.0885 2.7872.0442 3.2296 1.0177.6194 1.3275-1.0618 1.8143-2.2121 2.0355-.8406.177-1.46-.177-1.6812.177-.2654.4425-.3539 1.9913-.3981 2.4338-.2213 1.6815-.4425 3.3188-.531 5.0003-.0884 1.239.2213 3.186-1.4157 3.8498-4.2472 1.593-2.2564-7.0358-2.0794-8.5846.3982-3.2745.8849-6.549 1.5042-9.7793.2655-1.3718.3982-2.832.7079-4.2038.2655-1.062.8849-1.77 2.1237-1.9913 1.8139-.2655 4.1587-.1327 5.9284.0885 1.106.1328 2.8757.4425 2.566 1.77-.3539 1.6816-2.7872 1.2833-3.9818 1.2833-1.6812-.0442-2.389-.177-2.8315 1.5045-.4424 1.7258-.7521 3.5843-.929 5.3986z" fill="#e8140f"/><path d="m30.2639 15.1478c.5752.2212 1.0618.0885 1.4158-1.6815.2654-1.3718.7963-5.48708 1.0618-6.85884.177-.885.177-2.25676 1.0618-2.56651.5751-.17701 1.3273.354 1.4157.9735.0885.79651-.4424 4.11528-.5751 4.95604-.177 1.10621-.6194 3.62851-.8848 4.73481-.4425 1.6815-1.7697 3.7613-3.6722 3.7613-3.6278 0-2.6102-9.95637-1.9024-12.56714.177-.66376.3982-1.77001 1.0618-1.94702.7522-.22125 1.2388.53101 1.2388 1.23901.0885 2.30102-1.2387 9.51385-.2212 9.95635z" fill="#0421b1"/><path d="m40.5714 16.0326c.6636-.0885 1.1503-1.0177 1.4158-1.593.0884-.2212.1769-.4867.1769-.7522 0-.354-.2212-.6638-.5751-.7523-.2212-.0885-.4867-.0885-.6636-.2655-.2655-.2212-.2655-.708-.0443-.9735s.5309-.4868.8848-.5753c.7079-.2212 1.5043-.177 2.1679.0885.4424.177.8406.4425 1.0176.8851.1327.354.0885.7522.0442 1.1505-.2654 1.5045-.8848 3.0532-2.0794 4.071-1.1502 1.0177-2.9642 1.416-4.2914.6195-3.1412-1.77-1.1946-6.5933-.0885-9.02707.7078-1.50451 1.6812-2.92052 2.9642-3.98253.6194-.48675 1.283-.88501 2.0351-1.01776.6637-.0885 1.4158.04425 1.9467.44251.2212.177.3982.39825.3539.708-.0442.30975-.3539.48675-.6636.57525-.4424.17701-.9291.30976-1.3715.53101-1.0618.531-1.9467 1.46026-2.5661 2.47802-.6193 1.01775-1.106 2.03547-1.5042 3.14177-.2212.531-.3982 1.1948-.4867 1.8143-.1327.708-.0884 1.593.4867 2.124.3097.2655.5752.354.8406.3097z" fill="#0421b1"/><path d="m49.2861 17.5374c-.177.6195-.5309 1.1062-1.3273.9735-.9291-.177-.9291-1.1948-.7964-1.947.4425-2.6551.9291-5.3101 1.4158-7.96509.1327-.6195.3097-1.54876.7521-2.03551.5752-.61951 1.7254-.177 1.8139.6195.0885.70801-.2654 1.63726-.3982 2.34527-.1769.92923-.3539 1.90273-.5309 2.83203-.2212 1.3275-.4866 2.655-.7078 4.0268-.0885.3097-.1328.7522-.2212 1.1505z" fill="#0421b1"/><path d="m64.9476 13.2869c0-.0442 0-.0885 0-.177 0-.8408-.5751-1.5488-1.0618-2.1683-.6194-.7965-.9291-1.63723-.7079-2.65498.177-.75226.5309-1.46026.9734-2.07977.7963-1.10626 1.8581-2.07976 3.2296-2.25676.7079-.08851 2.6546-.30976 2.2121.9735-.1769.57526-.8848.75226-1.3715.97351-.6636.354-1.3272.7965-1.8139 1.32751-.6194.708-1.0176 1.68151-.7521 2.56652.2654.92927 1.106 1.50447 1.5485 2.34527.4866.9293.3096 2.0355-.1328 2.9205-.3982.7965-1.0175 1.4603-1.6369 2.0798-1.0618.9735-2.9642 1.7257-4.38 1.3717-.3539-.0885-.7079-.354-.7521-.7522-.0443-.3098.1327-.6195.3982-.7965.2654-.177.5309-.3098.8406-.3983.8406-.3097 1.6369-.708 2.3006-1.2832.5751-.4868 1.0618-1.239 1.106-1.9913z" fill="#0421b1"/><path d="m25.9702 37.6271c-.3982 1.239-.4867 2.7435-.7521 4.071-.2213 1.2832-.4867 2.6107-.7079 3.894-.2212 1.239-1.283 2.9205-2.8758 2.1683-2.1678-1.062-.4424-5.7083-.1327-7.5668.5752-3.2746 1.283-6.5048 2.1236-9.6909.531-1.947 1.8582-4.248 3.1412-2.124.7964 1.3275 1.5043 2.7436 2.0352 4.2038.5751 1.5045.9733 3.0975 1.46 4.602 0-.0442.4424-2.2567.4424-2.3895.3097-1.8142.3982-2.0797.6194-3.8055s.5751-3.4515.8848-5.1773c.177-.9735.4867-2.5223 1.6812-2.6993.7521-.0885 1.46.5311 1.6812 1.2391s.1328 1.5045.0443 2.2567c-.7521 5.2658-1.46 10.5758-2.3891 15.7974-.1327.7965-.3097 1.6815-.8849 2.301-2.1678 2.1683-5.3975-4.6463-6.0611-6.0623-.0443-.354-.177-.708-.3097-1.0177z" fill="#e8140f"/><path d="m69.1513 32.935c-.5309 3.0091-1.106 5.9738-2.3006 8.7616-.8848 2.0798-2.6103 5.2658-5.0436 5.9295-6.4151 1.77-6.769-6.9915-6.3266-10.9298.3097-2.832.9291-5.7968 1.9467-8.5403 1.106-3.0533 2.4775-4.4693 5.6629-4.956 2.2121-.354 4.4685.3982 5.6188 2.0797 1.0618 1.5488.8848 3.6285.7521 5.4428-.0442.708-.177 1.4603-.3097 2.2125zm-8.7157 10.1334c1.5042.7522 3.5394-4.6463 4.1588-8.4519.3097-1.8142 1.6812-7.3013-.6636-7.8765-3.9376-.9735-5.5303 16.1514-3.4952 16.3284z" fill="#e8140f"/><path d="m56.5858 6.12107c-.3981 1.06201-.5309 2.43377-.6193 3.49578-.0885 1.41605.7521.57525 1.6812.97355.6636.3097.8406.9735.0884 1.4602-1.0618.708-1.8139-.3097-2.0793 1.2833-.1328.7522-.354 2.5665.1769 3.1417.5752.6195 2.0352-.177 2.5661.531 1.283 1.7258-3.2297 1.5931-3.8933 1.1948-1.637-.885-1.2388-3.6285-1.1503-5.3543.1327-2.2567.5309-4.60201.9733-6.85878.2212-1.10626.5309-1.63726 1.7254-1.81426.8849-.13275 2.3006-.35401 3.097-.0885.5751.177 1.1945.84075.6194 1.50451-.5309.66375-2.4333.354-3.1855.531z" fill="#0421b1"/><path d="m51.233 5.23434c-.4424.17701-1.0618.13275-1.4158-.22125-.8848-.84075-.1769-2.34526 1.0619-2.07976.6193.13275 1.1502.7965 1.0175 1.46026-.0442.4425-.3539.708-.6636.84075z" fill="#0421b1"/><path d="m13.4503 46.2981c-.3096 1.0621-.8848 1.9028-2.3006 1.5931-1.54843-.3098-1.54843-2.0356-1.32722-3.2746.75212-4.5135 1.59272-8.9828 2.38912-13.4963.1769-1.062.4866-2.6108 1.283-3.4073.9733-1.0177 2.8757-.3097 3.0969 1.0178.177 1.1947-.4424 2.7435-.6636 3.9383-.3097 1.593-.5751 3.186-.8848 4.779-.3982 2.2568-.8406 4.5135-1.2388 6.7703-.0885.6195-.177 1.3717-.354 2.0797z" fill="#e8140f"/><path d="m16.7258 25.4578c-.7963.3097-1.7697.2212-2.3448-.354-1.5042-1.416-.3097-3.9383 1.7697-3.4958 1.0618.2655 1.9466 1.3718 1.7254 2.478-.0885.708-.5751 1.1505-1.1503 1.3718z" fill="#e8140f"/><path d="m4.0704 47.5831c-.97333.354-2.16787.2655-2.91999-.3982-1.858167-1.7258-.398178-4.8675 2.16787-4.2923 1.32727.3098 2.38908 1.6815 2.16787 3.0533-.13273.7965-.70788 1.3717-1.41575 1.6372z" fill="#e8140f"/></svg>

<svg width="70" height="48" viewBox="0 0 70 48" fill="none" xmlns="http://www.w3.org/2000/svg">
<path d="M12.7432 2.66871C12.168 2.84571 11.7256 2.31471 11.7256 1.7837C11.7256 1.65095 11.7698 1.47395 11.8141 1.3412C11.991 1.0757 12.345 0.942948 12.6547 0.810197C13.3625 0.588945 14.0704 0.279193 14.8225 0.102192C15.1322 0.0136911 15.4419 -0.0748095 15.7516 0.102192C16.0171 0.234943 16.194 0.500444 16.2383 0.810197C16.3268 1.47395 15.5747 1.73945 15.088 1.91645C14.3359 2.13771 13.5395 2.44746 12.7432 2.66871Z" fill="#0421B1"/>
<path d="M56.543 2.89039C55.9678 3.06739 55.5254 2.53639 55.5254 2.00538C55.5254 1.87263 55.5696 1.69563 55.6139 1.56288C55.7908 1.29738 56.1448 1.16463 56.4545 1.03188C57.1623 0.810625 57.8702 0.500873 58.6223 0.323871C58.932 0.235371 59.2417 0.14687 59.5514 0.323871C59.8169 0.456622 59.9938 0.722124 60.0381 1.03188C60.1266 1.69563 59.3744 1.96113 58.8878 2.13813C58.1357 2.40364 57.3393 2.66914 56.543 2.89039Z" fill="#0421B1"/>
<path d="M2.5218 14.8808C2.43332 15.7216 2.43332 17.9784 1.63696 18.3324C0.619388 18.7749 0 18.2439 0 17.4031C0.0442421 15.4561 0.265457 13.3763 0.619394 11.4736C0.973331 9.48231 1.28302 7.40254 1.76969 5.32278C2.25635 3.19876 3.05271 3.50851 4.86663 4.30502C6.28238 4.92452 6.81329 6.60603 6.76905 7.97779C6.7248 8.8628 6.7248 9.65931 6.32663 10.5001C6.10541 10.8983 5.66299 11.6063 5.30906 11.9161C4.95512 12.2701 4.77815 12.4471 4.42421 12.7568C3.6721 13.4206 3.80483 13.0666 4.68967 14.7481C5.08785 15.5003 5.88421 16.5624 5.79572 17.4916C5.70724 18.2439 4.99936 18.3766 4.42421 18.1554C3.71634 17.8456 3.00846 15.8543 2.5218 14.8808ZM3.58361 6.47328C3.3624 7.71229 3.09695 9.57081 2.87574 10.8098C5.17633 10.0133 5.08785 6.87154 3.58361 6.47328Z" fill="#0421B1"/>
<path d="M12.7417 6.03025C12.3435 7.09226 12.1665 8.46402 12.078 9.57028C11.9895 10.9863 12.8744 10.1455 13.8035 10.5438C14.5113 10.8535 14.6883 11.5173 13.892 12.004C12.7859 12.712 12.0338 11.6943 11.7683 13.2873C11.6356 14.0396 11.4144 15.8538 11.9453 16.4291C12.5204 17.0486 14.0247 16.2521 14.5998 16.9601C15.9271 18.6858 11.2817 18.5531 10.618 18.1548C8.93683 17.2256 9.33501 14.5263 9.46774 12.8005C9.60046 10.5438 9.99864 8.19852 10.4853 5.8975C10.7065 4.79124 11.0162 4.26024 12.255 4.08324C13.1398 3.95049 14.5998 3.72923 15.4404 3.99474C16.0598 4.17174 16.6792 4.87974 16.0598 5.49925C15.4847 6.11875 13.538 5.809 12.7417 6.03025Z" fill="#0421B1"/>
<path d="M21.637 9.88202C22.2564 9.92627 23.274 9.92627 23.5837 10.5015C23.9376 11.2538 22.9201 11.5635 22.2564 11.6963C21.7255 11.7848 21.3716 11.6078 21.2389 11.7848C21.1061 12.0503 21.0619 12.9795 21.0176 13.2008C20.8849 14.1743 20.7522 15.1478 20.708 16.1213C20.6637 16.8736 20.8407 18.0241 19.8674 18.3781C17.3456 19.3073 18.5401 14.2628 18.6286 13.3335C18.8498 11.4308 19.1595 9.48377 19.5134 7.58101C19.6461 6.7845 19.7346 5.89949 19.9558 5.10299C20.0886 4.48348 20.4867 4.04098 21.2389 3.95248C22.3449 3.77548 23.7164 3.90823 24.7782 3.99673C25.4419 4.08523 26.5037 4.26223 26.3267 5.01449C26.1055 5.988 24.6455 5.76674 23.9376 5.76674C22.9201 5.76674 22.5219 5.67824 22.2564 6.65175C21.9025 7.71376 21.7255 8.82001 21.637 9.88202Z" fill="#0421B1"/>
<path d="M45.8798 33.2908C46.9416 33.3793 48.667 33.335 49.1094 34.3085C49.7288 35.636 48.0476 36.1228 46.8973 36.344C46.0567 36.521 45.4373 36.167 45.2161 36.521C44.9507 36.9635 44.8622 38.5123 44.818 38.9548C44.5967 40.6363 44.3755 42.2736 44.287 43.9551C44.1986 45.1941 44.5083 47.1411 42.8713 47.8049C38.6241 49.3979 40.6149 40.7691 40.7919 39.2203C41.1901 35.9458 41.6768 32.6713 42.2961 29.441C42.5616 28.0692 42.6943 26.609 43.004 25.2372C43.2695 24.1752 43.8889 23.4672 45.1277 23.2459C46.9416 22.9804 49.2864 23.1132 51.0561 23.3344C52.1621 23.4672 53.9318 23.7769 53.6221 25.1044C53.2682 26.786 50.8349 26.3877 49.6403 26.3877C47.9591 26.3435 47.2513 26.2107 46.8088 27.8922C46.3664 29.618 46.0567 31.4765 45.8798 33.2908Z" fill="#E8140F"/>
<path d="M30.2639 15.1478C30.8391 15.369 31.3257 15.2363 31.6797 13.4663C31.9451 12.0945 32.476 7.97922 32.7415 6.60746C32.9185 5.72246 32.9185 4.3507 33.8033 4.04095C34.3784 3.86394 35.1306 4.39495 35.219 5.01445C35.3075 5.81096 34.7766 9.12973 34.6439 9.97049C34.4669 11.0767 34.0245 13.599 33.7591 14.7053C33.3166 16.3868 31.9894 18.4666 30.0869 18.4666C26.4591 18.4666 27.4767 8.51023 28.1845 5.89946C28.3615 5.2357 28.5827 4.12945 29.2463 3.95244C29.9985 3.73119 30.4851 4.48345 30.4851 5.19145C30.5736 7.49247 29.2464 14.7053 30.2639 15.1478Z" fill="#0421B1"/>
<path d="M40.5714 16.0326C41.235 15.9441 41.7217 15.0149 41.9872 14.4396C42.0756 14.2184 42.1641 13.9529 42.1641 13.6874C42.1641 13.3334 41.9429 13.0236 41.589 12.9351C41.3678 12.8466 41.1023 12.8466 40.9254 12.6696C40.6599 12.4484 40.6599 11.9616 40.8811 11.6961C41.1023 11.4306 41.412 11.2093 41.7659 11.1208C42.4738 10.8996 43.2702 10.9438 43.9338 11.2093C44.3762 11.3863 44.7744 11.6518 44.9514 12.0944C45.0841 12.4484 45.0399 12.8466 44.9956 13.2449C44.7302 14.7494 44.1108 16.2981 42.9162 17.3159C41.766 18.3336 39.952 18.7319 38.6248 17.9354C35.4836 16.1654 37.4302 11.3421 38.5363 8.90833C39.2441 7.40382 40.2175 5.98781 41.5005 4.9258C42.1199 4.43905 42.7835 4.04079 43.5356 3.90804C44.1993 3.81954 44.9514 3.95229 45.4823 4.35055C45.7035 4.52755 45.8805 4.7488 45.8362 5.05855C45.792 5.3683 45.4823 5.5453 45.1726 5.6338C44.7302 5.81081 44.2435 5.94356 43.8011 6.16481C42.7393 6.69581 41.8544 7.62507 41.235 8.64283C40.6157 9.66058 40.129 10.6783 39.7308 11.7846C39.5096 12.3156 39.3326 12.9794 39.2441 13.5989C39.1114 14.3069 39.1557 15.1919 39.7308 15.7229C40.0405 15.9884 40.306 16.0769 40.5714 16.0326Z" fill="#0421B1"/>
<path d="M49.2861 17.5374C49.1091 18.1569 48.7552 18.6436 47.9588 18.5109C47.0297 18.3339 47.0297 17.3161 47.1624 16.5639C47.6049 13.9088 48.0915 11.2538 48.5782 8.59881C48.7109 7.97931 48.8879 7.05005 49.3303 6.5633C49.9055 5.94379 51.0557 6.3863 51.1442 7.1828C51.2327 7.89081 50.8788 8.82006 50.746 9.52807C50.5691 10.4573 50.3921 11.4308 50.2151 12.3601C49.9939 13.6876 49.7285 15.0151 49.5073 16.3869C49.4188 16.6966 49.3745 17.1391 49.2861 17.5374Z" fill="#0421B1"/>
<path d="M64.9476 13.2869C64.9476 13.2427 64.9476 13.1984 64.9476 13.1099C64.9476 12.2691 64.3725 11.5611 63.8858 10.9416C63.2664 10.1451 62.9567 9.30437 63.1779 8.28662C63.3549 7.53436 63.7088 6.82636 64.1513 6.20685C64.9476 5.10059 66.0094 4.12709 67.3809 3.95009C68.0888 3.86158 70.0355 3.64033 69.593 4.92359C69.4161 5.49885 68.7082 5.67585 68.2215 5.8971C67.5579 6.2511 66.8943 6.6936 66.4076 7.22461C65.7882 7.93261 65.39 8.90612 65.6555 9.79113C65.9209 10.7204 66.7615 11.2956 67.204 12.1364C67.6906 13.0657 67.5136 14.1719 67.0712 15.0569C66.673 15.8534 66.0537 16.5172 65.4343 17.1367C64.3725 18.1102 62.4701 18.8624 61.0543 18.5084C60.7004 18.4199 60.3464 18.1544 60.3022 17.7562C60.2579 17.4464 60.4349 17.1367 60.7004 16.9597C60.9658 16.7827 61.2313 16.6499 61.541 16.5614C62.3816 16.2517 63.1779 15.8534 63.8416 15.2782C64.4167 14.7914 64.9034 14.0392 64.9476 13.2869Z" fill="#0421B1"/>
<path d="M25.9702 37.6271C25.572 38.8661 25.4835 40.3706 25.2181 41.6981C24.9968 42.9813 24.7314 44.3088 24.5102 45.5921C24.289 46.8311 23.2272 48.5126 21.6344 47.7604C19.4666 46.6984 21.192 42.0521 21.5017 40.1936C22.0769 36.919 22.7847 33.6888 23.6253 30.5027C24.1563 28.5557 25.4835 26.2547 26.7665 28.3787C27.5629 29.7062 28.2708 31.1223 28.8017 32.5825C29.3768 34.087 29.775 35.68 30.2617 37.1845C30.2617 37.1403 30.7041 34.9278 30.7041 34.795C31.0138 32.9808 31.1023 32.7153 31.3235 30.9895C31.5447 29.2637 31.8986 27.538 32.2083 25.8122C32.3853 24.8387 32.695 23.2899 33.8895 23.1129C34.6416 23.0244 35.3495 23.644 35.5707 24.352C35.7919 25.06 35.7035 25.8565 35.615 26.6087C34.8629 31.8745 34.155 37.1845 33.2259 42.4061C33.0932 43.2026 32.9162 44.0876 32.341 44.7071C30.1732 46.8754 26.9435 40.0608 26.2799 38.6448C26.2356 38.2908 26.1029 37.9368 25.9702 37.6271Z" fill="#E8140F"/>
<path d="M69.1513 32.935C68.6204 35.9441 68.0453 38.9088 66.8507 41.6966C65.9659 43.7764 64.2404 46.9624 61.8071 47.6261C55.392 49.3961 55.0381 40.6346 55.4805 36.6963C55.7902 33.8643 56.4096 30.8995 57.4272 28.156C58.5332 25.1027 59.9047 23.6867 63.0901 23.2C65.3022 22.846 67.5586 23.5982 68.7089 25.2797C69.7707 26.8285 69.5937 28.9082 69.461 30.7225C69.4168 31.4305 69.284 32.1828 69.1513 32.935ZM60.4356 43.0684C61.9398 43.8206 63.975 38.4221 64.5944 34.6165C64.9041 32.8023 66.2756 27.3152 63.9308 26.74C59.9932 25.7665 58.4005 42.8914 60.4356 43.0684Z" fill="#E8140F"/>
<path d="M56.5858 6.12107C56.1877 7.18308 56.0549 8.55484 55.9665 9.61685C55.878 11.0329 56.7186 10.1921 57.6477 10.5904C58.3113 10.9001 58.4883 11.5639 57.7361 12.0506C56.6743 12.7586 55.9222 11.7409 55.6568 13.3339C55.524 14.0861 55.3028 15.9004 55.8337 16.4756C56.4089 17.0951 57.8689 16.2986 58.3998 17.0066C59.6828 18.7324 55.1701 18.5997 54.5065 18.2014C52.8695 17.3164 53.2677 14.5729 53.3562 12.8471C53.4889 10.5904 53.8871 8.24509 54.3295 5.98832C54.5507 4.88206 54.8604 4.35106 56.0549 4.17406C56.9398 4.04131 58.3555 3.82005 59.1519 4.08556C59.727 4.26256 60.3464 4.92631 59.7713 5.59007C59.2404 6.25382 57.338 5.94407 56.5858 6.12107Z" fill="#0421B1"/>
<path d="M51.233 5.23434C50.7906 5.41135 50.1712 5.36709 49.8172 5.01309C48.9324 4.17234 49.6403 2.66783 50.8791 2.93333C51.4984 3.06608 52.0293 3.72983 51.8966 4.39359C51.8524 4.83609 51.5427 5.10159 51.233 5.23434Z" fill="#0421B1"/>
<path d="M13.4503 46.2981C13.1407 47.3602 12.5655 48.2009 11.1497 47.8912C9.60127 47.5814 9.60127 45.8556 9.82248 44.6166C10.5746 40.1031 11.4152 35.6338 12.2116 31.1203C12.3885 30.0583 12.6982 28.5095 13.4946 27.713C14.4679 26.6953 16.3703 27.4033 16.5915 28.7308C16.7685 29.9255 16.1491 31.4743 15.9279 32.6691C15.6182 34.2621 15.3528 35.8551 15.0431 37.4481C14.6449 39.7049 14.2025 41.9616 13.8043 44.2184C13.7158 44.8379 13.6273 45.5901 13.4503 46.2981Z" fill="#E8140F"/>
<path d="M16.7258 25.4578C15.9295 25.7675 14.9561 25.679 14.381 25.1038C12.8768 23.6878 14.0713 21.1655 16.1507 21.608C17.2125 21.8735 18.0973 22.9798 17.8761 24.086C17.7876 24.794 17.301 25.2365 16.7258 25.4578Z" fill="#E8140F"/>
<path d="M4.0704 47.5831C3.09707 47.9371 1.90253 47.8486 1.15041 47.1849C-0.707757 45.4591 0.752232 42.3174 3.31828 42.8926C4.64555 43.2024 5.70736 44.5741 5.48615 45.9459C5.35342 46.7424 4.77827 47.3176 4.0704 47.5831Z" fill="#E8140F"/>
</svg>
